sharp/svg/ballot.svg

<svg xmlns="http://www.w3.org/2000/svg" width="24" height="24"><path fill="none" d="M0 0h24v24H0V0z"/><path d="M13 9.5h5v-2h-5v2zm0 7h5v-2h-5v2zm8 4.5H3V3h18v18zM6 11h5V6H6v5zm1-4h3v3H7V7zM6 18h5v-5H6v5zm1-4h3v3H7v-3z" fill="currentColor"/></svg>

<?xml version="1.0" encoding="utf-8"?>
<!-- Generator: Adobe Illustrator 19.1.0, SVG Export Plug-In . SVG Version: 6.00 Build 0)  -->
<svg version="1.1" xmlns="http://www.w3.org/2000/svg" xmlns:xlink="http://www.w3.org/1999/xlink" x="0px" y="0px" width="24px"
	 height="24px" viewBox="0 0 24 24" enable-background="new 0 0 24 24" xml:space="preserve">
<g id="Bounding_Boxes">
	<g id="ui_x5F_spec_x5F_header_copy_3" display="none">
	</g>
	<path fill="none" d="M0,0h24v24H0V0z"/>
</g>
<g id="Sharp" fill="currentColor">
	<g id="ui_x5F_spec_x5F_header_copy_4" display="none">
	</g>
	<path d="M13,9.5h5v-2h-5V9.5z M13,16.5h5v-2h-5V16.5z M21,21H3V3h18V21z M6,11h5V6H6V11z M7,7h3v3H7V7z M6,18h5v-5H6V18z M7,14h3v3
		H7V14z"/>
</g>
</svg>
